svgs/sharp-light/i.svg

<svg xmlns="http://www.w3.org/2000/svg" viewBox="0 0 320 512"><!--! Font Awesome Pro 6.6.0 by @fontawesome - https://fontawesome.com License - https://fontawesome.com/license (Commercial License) Copyright 2024 Fonticons, Inc. --><path d="M16 32L0 32 0 64l16 0 128 0 0 384L16 448 0 448l0 32 16 0 288 0 16 0 0-32-16 0-128 0 0-384 128 0 16 0 0-32-16 0L160 32 16 32z"/></svg>

<svg xmlns="http://www.w3.org/2000/svg" viewBox="0 0 320 512"><!--! Font Awesome Pro 6.4.2 by @fontawesome - https://fontawesome.com License - https://fontawesome.com/license (Commercial License) Copyright 2023 Fonticons, Inc. --><path d="M16 32H0V64H16 144V448H16 0v32H16 304h16V448H304 176V64H304h16V32H304 160 16z"/></svg>
